X: 15516
T: Glenside, The
R: polka
M: 2/4
K: Edorian
|:B>c BA|FA D2|B>c BA|Be ed|
B>c BA|FA D>E|FD AF|E2 E2:|
|:Be ed/e/|fe dA|Be ed/e/|fe d2|
Be ed/e/|fe dB|AF dF|E2 E2:|

